icons/physical-therapy.svg

<?xml version="1.0" encoding="UTF-8"?><svg xmlns="http://www.w3.org/2000/svg" viewBox="0 0 50 50"><g id="uuid-fd943ab5-52d0-4298-b240-ebbd2f10a051"><g><path d="M40.94,26.67h-1.05c.28-.73,.27-1.52-.03-2.24-1.81-4.2-3.12-7.25-3.52-8.39-.11-.32-.41-1.16-1.16-2.02,0,0-.33-.35-.73-.7-1.35-1.18-3.21-1.78-5.36-1.75h-6.71c-.13,0-3.31,.02-5.24,2.07-1.61,1.71-1.9,3.71-1.93,4.75v.24c0,1.27-.02,3.61-.06,8.05h-5.5c-2.62,0-4.76,2-4.76,4.46v16.59c0,.28,.22,.5,.5,.5s.5-.22,.5-.5V31.13c0-1.91,1.69-3.46,3.76-3.46h5.5c.05,.7,.33,1.37,.82,1.9,.58,.62,1.37,.96,2.18,.95,.7-.02,1.35-.32,1.85-.78v15.69c.03,1.76,1.49,3.21,3.24,3.24h.05c1.15,0,2.18-.61,2.77-1.52,.57,.91,1.58,1.52,2.73,1.52,1.77,0,3.21-1.44,3.21-3.21V27.67h2.93c.84,.87,2.15,1.2,3.33,.71,.39-.16,.73-.41,1.02-.71h1.68c1.76,0,3.2,1.55,3.2,3.46v16.59c0,.28,.22,.5,.5,.5s.5-.22,.5-.5V31.13c0-2.46-1.88-4.46-4.2-4.46Zm-5.71-.29l-3.28-7.81c-.09-.22-.33-.34-.56-.3-.23,.05-.4,.25-.4,.49v7.91h-9.93v-7.54c0-.28-.22-.5-.5-.5s-.5,.22-.5,.5v7.54h-3.93c.05-4.45,.06-6.78,.06-8.05v-.21c.03-.9,.28-2.63,1.66-4.1,1.63-1.73,4.48-1.76,4.51-1.76h6.72c1.33-.02,3.23,.22,4.7,1.5,.35,.31,.65,.62,.65,.62,.61,.7,.85,1.39,.97,1.72,.41,1.14,1.66,4.08,3.53,8.42,.21,.49,.21,1.04,0,1.54-.21,.5-.59,.89-1.08,1.09-1.02,.42-2.2-.06-2.63-1.08Zm-6.45,21.29c-1.2,0-2.18-.96-2.21-2.09,0-.04,0-.09,0-.13,0,0,0-.01,0-.02,0-.02,.01-.03,.01-.05v-14.14c0-.28-.22-.5-.5-.5s-.5,.22-.5,.5v14.12s-.01,.07-.01,.1v.04c-.07,1.22-1.07,2.15-2.32,2.17-1.22-.02-2.23-1.03-2.26-2.25V27.67h10v17.78c0,1.22-.99,2.21-2.21,2.21Zm-12.09-18.78c-.31-.33-.5-.75-.56-1.21h3.84c-.11,1-.9,1.81-1.86,1.84-.51,0-1.04-.21-1.42-.63Zm15.3-2.21v-5.43l2.28,5.43h-2.28Z"/><path d="M25.72,10.98c2.87,0,5.2-2.33,5.2-5.2S28.59,.58,25.72,.58s-5.2,2.33-5.2,5.2,2.33,5.2,5.2,5.2Zm4.2-5.2c0,2.32-1.89,4.2-4.2,4.2s-4.2-1.89-4.2-4.2,1.89-4.2,4.2-4.2,4.2,1.89,4.2,4.2Z"/></g></g><g id="uuid-6b9933f0-f098-40d3-a9bc-1aae78e4eb43"><text transform="translate(0 54.91)" font-family="Roboto-Regular, Roboto" font-size="6"><tspan x="0" y="0">physical-the</tspan><tspan x="32.02" y="0" letter-spacing="-.02em">r</tspan><tspan x="33.93" y="0">aphy</tspan></text></g></svg>

<svg xmlns="http://www.w3.org/2000/svg" viewBox="0 0 50 50"><g id="e6d9f5ba-4f65-4077-8348-b6461862e49c" data-name="ICONS"><path d="M40.94,26.67H39.88a3,3,0,0,0,0-2.24c-1.8-4.2-3.11-7.26-3.52-8.39a6,6,0,0,0-1.16-2s-.33-.35-.73-.7a7.82,7.82,0,0,0-5.36-1.75H22.36a7.91,7.91,0,0,0-5.24,2.07,7.25,7.25,0,0,0-1.93,4.75v.24c0,1.27,0,3.61-.06,8.05H9.63a4.62,4.62,0,0,0-4.76,4.46V47.72a.5.5,0,0,0,1,0V31.13a3.63,3.63,0,0,1,3.76-3.46h5.5a3.07,3.07,0,0,0,.82,1.9,2.89,2.89,0,0,0,2.18.94A2.83,2.83,0,0,0,20,29.73V45.42a3.31,3.31,0,0,0,3.24,3.24h.05A3.27,3.27,0,0,0,26,47.14,3.22,3.22,0,0,0,32,45.45V27.67h2.92a3,3,0,0,0,4.35,0h1.68a3.34,3.34,0,0,1,3.19,3.46V47.72a.5.5,0,0,0,1,0V31.13A4.34,4.34,0,0,0,40.94,26.67Zm-5.71-.29L32,18.57a.52.52,0,0,0-.56-.3.49.49,0,0,0-.4.49v7.91H21.05V19.13a.5.5,0,0,0-.5-.5.5.5,0,0,0-.5.5v7.54H16.13c.05-4.45.06-6.78.06-8v-.21a6.26,6.26,0,0,1,1.66-4.09,7,7,0,0,1,4.52-1.76h6.71a7,7,0,0,1,4.7,1.5c.35.31.65.62.65.62a5.12,5.12,0,0,1,1,1.72c.41,1.14,1.66,4.08,3.53,8.42a2,2,0,0,1,0,1.54,2,2,0,0,1-3.71,0ZM28.77,47.66a2.21,2.21,0,0,1-2.21-2.08s0-.09,0-.13a0,0,0,0,0,0,0,.13.13,0,0,0,0-.06V31.24a.5.5,0,0,0-.5-.5.5.5,0,0,0-.5.5V45.35s0,.08,0,.1v0A2.29,2.29,0,0,1,21,45.41V27.67H31V45.45A2.22,2.22,0,0,1,28.77,47.66ZM16.68,28.89a2.14,2.14,0,0,1-.55-1.22H20a2,2,0,0,1-1.86,1.84A1.93,1.93,0,0,1,16.68,28.89ZM32,26.67V21.24l2.28,5.43Z"/><path d="M25.72,11a5.2,5.2,0,1,0-5.2-5.2A5.2,5.2,0,0,0,25.72,11Zm4.2-5.2a4.2,4.2,0,1,1-4.2-4.2A4.2,4.2,0,0,1,29.92,5.78Z"/></g><g id="e29e5bf7-8921-4532-86fe-d528f659e78b" data-name="LABELS"><text transform="translate(0 54.91)" font-size="6" font-family="Roboto-Regular, Roboto">physical-the<tspan x="32.02" y="0" letter-spacing="-0.02em">r</tspan><tspan x="33.93" y="0">aphy</tspan></text></g></svg>
